fa/svgs/regular/rectangle-list.svg

<svg xmlns="http://www.w3.org/2000/svg" viewBox="0 0 576 512"><!--! Font Awesome Free 6.1.1 by @fontawesome - https://fontawesome.com License - https://fontawesome.com/license/free (Icons: CC BY 4.0, Fonts: SIL OFL 1.1, Code: MIT License) Copyright 2022 Fonticons, Inc.--><path d="M128 192c-17.7 0-32-14.3-32-32s14.3-32 32-32 32 14.3 32 32-14.3 32-32 32zm72-32c0-13.3 10.7-24 24-24h224c13.3 0 24 10.7 24 24s-10.7 24-24 24H224c-13.3 0-24-10.7-24-24zm0 96c0-13.3 10.7-24 24-24h224c13.3 0 24 10.7 24 24s-10.7 24-24 24H224c-13.3 0-24-10.7-24-24zm0 96c0-13.3 10.7-24 24-24h224c13.3 0 24 10.7 24 24s-10.7 24-24 24H224c-13.3 0-24-10.7-24-24zm-72-128c17.7 0 32 14.3 32 32s-14.3 32-32 32-32-14.3-32-32 14.3-32 32-32zm0 160c-17.7 0-32-14.3-32-32s14.3-32 32-32 32 14.3 32 32-14.3 32-32 32zM0 96c0-35.35 28.65-64 64-64h448c35.3 0 64 28.65 64 64v320c0 35.3-28.7 64-64 64H64c-35.35 0-64-28.7-64-64V96zm48 0v320c0 8.8 7.16 16 16 16h448c8.8 0 16-7.2 16-16V96c0-8.84-7.2-16-16-16H64c-8.84 0-16 7.16-16 16z"/></svg>

<svg xmlns="http://www.w3.org/2000/svg" viewBox="0 0 576 512"><!--! Font Awesome Free 6.2.1 by @fontawesome - https://fontawesome.com License - https://fontawesome.com/license/free (Icons: CC BY 4.0, Fonts: SIL OFL 1.1, Code: MIT License) Copyright 2022 Fonticons, Inc. --><path d="M128 192C110.3 192 96 177.7 96 160C96 142.3 110.3 128 128 128C145.7 128 160 142.3 160 160C160 177.7 145.7 192 128 192zM200 160C200 146.7 210.7 136 224 136H448C461.3 136 472 146.7 472 160C472 173.3 461.3 184 448 184H224C210.7 184 200 173.3 200 160zM200 256C200 242.7 210.7 232 224 232H448C461.3 232 472 242.7 472 256C472 269.3 461.3 280 448 280H224C210.7 280 200 269.3 200 256zM200 352C200 338.7 210.7 328 224 328H448C461.3 328 472 338.7 472 352C472 365.3 461.3 376 448 376H224C210.7 376 200 365.3 200 352zM128 224C145.7 224 160 238.3 160 256C160 273.7 145.7 288 128 288C110.3 288 96 273.7 96 256C96 238.3 110.3 224 128 224zM128 384C110.3 384 96 369.7 96 352C96 334.3 110.3 320 128 320C145.7 320 160 334.3 160 352C160 369.7 145.7 384 128 384zM0 96C0 60.65 28.65 32 64 32H512C547.3 32 576 60.65 576 96V416C576 451.3 547.3 480 512 480H64C28.65 480 0 451.3 0 416V96zM48 96V416C48 424.8 55.16 432 64 432H512C520.8 432 528 424.8 528 416V96C528 87.16 520.8 80 512 80H64C55.16 80 48 87.16 48 96z"/></svg>
